X:098
U: ~ = !turn!
%%topmargin 3cm
T:Jig
T:From Peter Sherry
B:Traditional Irish Fiddle Tunes. Randy Miller and Jack Perron.
Z:Transcribed by Ralph Palmer
S:Peter Sherry
R:Jig
L:1/8
M:6/8
K:G
GFG BAG | e/2f/2ge dBA | GFG BAG | EFG AFD |
GFG BAG | e/2f/2ge dBG | AGA BdB | [1 GAG G3 :| [2 GAG G2 ||
|: f | gfe def | gag fed | Bee e2d Bee e2 f |
gfe dcB | ege dBG | AGA BdB | [1 GAG G2 :| [2 GAG G3 |]
